src/svg/media-fast-forward.svg

<svg version="1.2" baseProfile="tiny" xmlns="http://www.w3.org/2000/svg" width="24" height="24" viewBox="0 0 24 24"><path d="M15.053 6.912c-.324-.314-.765-.512-1.253-.512-.994 0-1.8.807-1.8 1.801v9c0 .994.806 1.799 1.8 1.799.488 0 .93-.195 1.253-.512 2.381-2.314 5.947-5.787 5.947-5.787s-3.566-3.474-5.947-5.789zM6.053 6.912c-.324-.314-.765-.512-1.253-.512-.994 0-1.8.807-1.8 1.801v9c0 .994.806 1.799 1.8 1.799.488 0 .93-.195 1.253-.512 2.381-2.314 5.947-5.787 5.947-5.787s-3.566-3.474-5.947-5.789z"/></svg>

<?xml version="1.0" encoding="iso-8859-1"?>
<!-- Generator: Adobe Illustrator 16.2.1, SVG Export Plug-In . SVG Version: 6.00 Build 0)  -->
<svg version="1.2" baseProfile="tiny" id="Layer_1" xmlns="http://www.w3.org/2000/svg" xmlns:xlink="http://www.w3.org/1999/xlink"
	 x="0px" y="0px" width="24px" height="24px" viewBox="0 0 24 24" xml:space="preserve">
<g>
	<path d="M15.053,6.912C14.729,6.598,14.288,6.4,13.8,6.4c-0.994,0-1.8,0.807-1.8,1.801v4.5v4.5C12,18.195,12.806,19,13.8,19
		c0.488,0,0.93-0.195,1.253-0.512C17.434,16.174,21,12.701,21,12.701S17.434,9.227,15.053,6.912z"/>
</g>
<g>
	<path d="M6.053,6.912C5.729,6.598,5.288,6.4,4.8,6.4C3.806,6.4,3,7.207,3,8.201v9C3,18.195,3.806,19,4.8,19
		c0.488,0,0.93-0.195,1.253-0.512C8.434,16.174,12,12.701,12,12.701S8.434,9.227,6.053,6.912z"/>
</g>
</svg>
